!!!OTL: ES WAR EINMAL EIN GAERTNER, DER SANG EIN TRAURIG LIED
!!!ARE: Europa, Mitteleuropa, Deutschland, Schwaben
!!!SCT: Z0190
!!!YEM: Copyright 1995, estate of Helmut Schaffrath.
**kern
*ICvox
*Ivox
*M4/4
*k[b-]
*F:
{4cc
4cc
4ff
=1
4dd
8cc
8b-
4b-
4a
=2
4r}
{4cc
4cc
4ff
=3
4dd
8cc
8b-
4b-
4a
=4
4r}
{4cc
4ff
4ff
=5
4ff
8ee
8dd
8dd
8cc
8cc}
{8cc
=6
4.dd
8dd
4dd
8cc
8b-
=7
8b-
8a
8a
8a
2a
=8
4ff}
{4a
4a
4ff
=9
4.cc
8b-
4b-
4a
=10
8b-
8a
8g
8a
4.g
8r}
==
!!!AGN: Staende -, Gaertner - Lied; Romanze, Tod; 264-5 muss ueberprueft werden! ++
!!!ONB: ESAC (Essen Associative Code) Database: ZUCCAL
!!!AMT: simple quadruple
!!!AIN: vox
!!!EED: Helmut Schaffrath
!!!EEV: 1.0
*-
